sf/icons/pearson.svg

<svg width="120" height="24" viewBox="0 0 120 24" fill="none" xmlns="http://www.w3.org/2000/svg">
<path d="M6.67175 2.11133V2.11512C6.67175 2.11512 7.13831 5.68646 7.13831 11.7824C7.13831 17.8784 6.67175 21.4535 6.67175 21.4491V21.4529C9.05632 18.9219 10.5191 15.523 10.5191 11.7831V11.7812C10.5191 8.04126 9.05632 4.64226 6.67175 2.11133Z" fill="white"/>
<path d="M6.75595 8.51326C6.25593 6.62311 5.31966 4.84218 4.02289 3.22412C2.91047 1.97475 1.56004 0.88447 0.029673 0C1.51395 2.34596 2.51273 6.73359 2.51273 11.7595C2.51273 16.7854 1.51584 21.1629 0.0347248 23.5114C0.0233607 23.5379 0.0113641 23.5644 0 23.5909C0.85357 23.0998 1.65158 22.5448 2.3833 21.9337C4.90929 19.5297 6.57097 16.6446 7.03753 13.5063C7.10445 12.947 7.13918 12.3775 7.13918 11.7999C7.13918 10.6679 7.00659 9.56819 6.75658 8.51263L6.75595 8.51326Z" fill="white"/>
<path d="M95.5237 7.20117C90.7741 7.20117 86.9899 10.9215 86.9899 15.6033C86.9899 20.2851 90.7621 23.9903 95.5117 23.9903C100.261 23.9903 104.033 20.2814 104.033 15.6002C104.033 10.919 100.273 7.2018 95.523 7.2018L95.5237 7.20117ZM95.5123 20.2182C92.783 20.2182 91.0999 18.0964 91.0999 15.6033C91.0999 13.1103 92.7837 10.9853 95.5123 10.9853C98.241 10.9853 99.9247 13.1071 99.9247 15.6002C99.9247 18.0932 98.241 20.2182 95.5123 20.2182Z" fill="white"/>
<path d="M35.7884 7.20312C31.0779 7.20312 27.6725 11.0062 27.6719 15.6274C27.6719 20.1488 30.9308 24.0005 35.6627 24.0005C39.077 24.0005 42.1851 21.9531 43.3594 18.7644H39.2153C38.5732 19.6179 37.3156 20.3427 35.6886 20.3427C33.0957 20.3427 31.917 18.4916 31.7806 17.0781H43.6321C43.7016 16.623 43.7394 15.8673 43.7394 15.342C43.7394 10.4474 40.1383 7.20312 35.7884 7.20312ZM31.7901 13.9929C31.7901 12.241 33.5174 10.8218 35.6476 10.8218C37.7777 10.8218 39.5063 12.2416 39.5063 13.9929H31.7895H31.7901Z" fill="white"/>
<path d="M112.226 7.20312C108.226 7.20312 104.993 10.4342 104.993 14.4355V23.5908H109.049L109.05 14.4411C109.05 12.3736 110.518 11.056 112.22 11.056C113.92 11.056 115.38 12.3837 115.378 14.4519L115.37 23.5908H119.461V14.438C119.461 10.4367 116.227 7.20312 112.226 7.20312Z" fill="white"/>
<path d="M73.9591 7.71386C73.5115 7.50426 72.5399 7.20312 71.4306 7.20312C68.2329 7.20312 66.9898 9.66398 66.8521 9.93671V7.61221H63.0123L63.0016 23.5889L67.0548 23.5908V13.1368C67.1659 12.9209 68.3036 10.9803 70.6591 10.9803C71.5398 10.9803 72.3416 11.2517 72.5449 11.3509L73.9597 7.71323L73.9591 7.71386Z" fill="white"/>
<path d="M53.0912 7.20117C48.3757 7.20117 44.5416 10.8805 44.5416 15.6734C44.5416 20.1614 47.9035 24.0086 52.4472 23.9992C54.7346 23.9947 56.539 23.0143 57.4771 21.5932V23.5907H61.5834L61.5802 15.3925C61.5783 10.7731 57.7385 7.20117 53.0918 7.20117H53.0912ZM53.0634 20.2719C50.3342 20.2719 48.6504 18.1185 48.6504 15.6254C48.6504 13.1324 50.3348 10.979 53.0634 10.979C55.7921 10.979 57.4765 13.1324 57.4765 15.6254C57.4765 18.1185 55.7921 20.2719 53.0634 20.2719Z" fill="white"/>
<path d="M81.2729 14.0529C78.5784 13.4796 77.5007 13.2435 77.5007 12.3275C77.5007 11.2909 78.8821 10.7511 80.3398 10.7511C82.5533 10.7511 84.1897 11.9942 84.3715 12.1324L86.3918 9.16777C85.3577 8.47459 83.3911 7.20312 80.3032 7.20312C76.0164 7.20312 73.5239 9.64378 73.5239 12.3654C73.5239 15.2303 76.2847 16.5838 79.4528 17.2511C81.8765 17.7618 82.619 17.9582 82.619 18.8136C82.619 19.9803 81.2376 20.4512 79.8316 20.4512C77.6629 20.4512 75.8636 19.3307 74.7714 18.1621L72.515 21.092C73.4563 21.9872 75.8933 23.9992 79.7628 23.9992C83.6323 23.9992 86.6961 21.7985 86.6961 19.0699C86.6961 15.7694 84.4391 14.7252 81.2729 14.0516V14.0529Z" fill="white"/>
<path d="M20.924 0H12.9211L12.9186 23.5909H16.9459L16.949 15.0909H20.924C25.606 15.0909 28.738 11.858 28.738 7.54546C28.738 3.23296 25.606 0 20.924 0ZM20.4183 11.2506H16.949V3.84028H20.4183C23.1804 3.84028 24.6293 5.32261 24.6293 7.54546C24.6293 9.76832 23.1804 11.2506 20.4183 11.2506Z" fill="white"/>
</svg>

<?xml version="1.0" encoding="UTF-8"?>
<svg id="Layer_1" xmlns="http://www.w3.org/2000/svg" version="1.1" viewBox="0 0 10.48 24">
  <!-- Generator: Adobe Illustrator 29.6.1, SVG Export Plug-In . SVG Version: 2.1.1 Build 9)  -->
  <defs>
    <style>
      .st0 {
        fill: #fff;
      }
    </style>
  </defs>
  <path class="st0" d="M6.67,2.11h0s.47,3.58.47,9.67-.47,9.67-.47,9.67h0c2.38-2.53,3.85-5.93,3.85-9.67h0c0-3.74-1.46-7.14-3.85-9.67Z"/>
  <path class="st0" d="M6.76,8.51c-.5-1.89-1.44-3.67-2.73-5.29C2.91,1.97,1.56.88.03,0c1.48,2.35,2.48,6.73,2.48,11.76S1.52,21.16.03,23.51c-.01.03-.02.05-.03.08.85-.49,1.65-1.05,2.38-1.66,2.53-2.4,4.19-5.29,4.65-8.43.07-.56.1-1.13.1-1.71,0-1.13-.13-2.23-.38-3.29h0Z"/>
</svg>
